X: 13
T:Den store Paipolsen
M:3/4
L:1/8
C:Asmund Reistad
R:Polska
Q:1/4=150
A:Norway
N:Originally in A, transposed to fit better on flute
N:Posted to woodenflute 11/06/2201
D:Chateau Neuf Spelemannslag - Tjuvgods
Z:Steve Mansfield June 2001
K:D
d>(d d)f e>c | d(A A)B A>F | G(B B) A/G/ A>c |
d(A A)B A2 | d>(d d)f e>c | d(A A)d fa |
g>a f>d e<c | d2 d4 :: a(a a)f g>e | f(f f)d e>f |
dc/d/ e2 f>d | e>^g a4 | b/g/b a/f/a g/e/g |
f(f f)d e>c | dc/d/ e2 f>d | c<e d4 :|


